!!!OTL: DIE ZEITEN BRUEDER SIND NICHT MEHR
!!!ARE: Europa, Mitteleuropa, Deutschland
!!!SCT: F0725
!!!YEM: Copyright 1995, estate of Helmut Schaffrath.
**kern
*ICvox
*Ivox
*M3/4
*k[f#c#]
*D:
{4A
=1
4d
4c#
4B
=2
4A
4G
4F#
=3
4E
4F#
4G
=4
4F#
4r}
{4A
=5
4B
4A
4B
=6
4c#
4B
4c#
=7
2d
4f#
=8
4d
4r}
{4A
=9
4d
4c#
4B
=10
4A
4G
4F#
=11
4E
4F#
4G
=12
4F#
4r}
{4A
=13
4B
4A
4B
=14
4c#
4B
4c#
=15
2d
4f#
=16
4d
4r}
{4A
=17
4A
4d
4f#
=18
4e
4c#
4A
=19
4d
4B
4G#
=20
4A
4r}
{4A
=21
4A
4d
4f#
=22
4e
4c#
4A
=23
4d
4B
4G#
=24
4A
4r}
{4A
=25
4F#
4D
4A
=26
2d
4f#
=27
4e
4d
4c#
=28
4d
4r}
{4A
=29
4F#
4D
4A
=30
2d
4f#
=31
4e
4d
4c#
=32
4d
4r}
==
!!!AGN: Geselligkeits -, Moral - Lied
!!!ONB: ESAC (Essen Associative Code) Database: FINK
!!!AMT: simple triple
!!!AIN: vox
!!!EED: Helmut Schaffrath
!!!EEV: 1.0
*-
